; generated by PrusaSlicer 2.7.2+MacOS-x64 on 2024-04-11 at 20:14:32 UTC

; 

; external perimeters extrusion width = 1.00mm
; perimeters extrusion width = 1.00mm
; infill extrusion width = 1.00mm
; solid infill extrusion width = 1.00mm
; top infill extrusion width = 0.45mm
; first layer extrusion width = 1.00mm

M201 X1000 Y1000 Z20 E1500 ; sets maximum accelerations, mm/sec^2
M203 X13000 Y13000 Z800 E8000 ; sets maximum feedrates, mm / sec
M204 S1500 T1500 ; sets acceleration (S) and retract acceleration (R), mm/sec^2
M205 X17.00 Y17.00 Z0.10 E50.00 ; sets the jerk limits, mm/sec
M205 S0 T2 ; sets the minimum extruding and travel feed rate, mm/sec
M190 S20 ; set bed temperature and wait for it to be reached
M104 S20 ; set temperature
;TYPE:Custom
G91 ; relative moves
G1 Z1 F900 ; raise tool 1mm
G90 ; absolute moves
T-1 ; Make sure nothing is parked on the carriage
G0 X150 Y150 F10000; Move to the center of the print area
M558 F500  ; Set the probing speed
G30 ; Do a single probe
M558 F50 ; Set a slower probing speed
G30 ; Do a second probe
T2
M109 S20 ; set temperature and wait for it to be reached
G21 ; set units to millimeters
G90 ; use absolute coordinates
M83 ; use relative distances for extrusion
; Filament gcode
M107
;LAYER_CHANGE
;Z:0.25
;HEIGHT:0.25
G1 X142.079 Y141.787 F7800
G1 Z.25
;TYPE:Skirt/Brim
;WIDTH:1
G1 F180
G1 X142.331 Y141.535 E.00052
G1 X143.244 Y140.79 E.00171
G1 X144.221 Y140.148 E.0017
G1 X145.251 Y139.613 E.00169
G1 X146.276 Y139.203 E.0016
G1 X147.341 Y138.894 E.00161
G1 X149.442 Y138.594 E.00308
G1 X150.511 Y138.593 E.00155
G1 X151.589 Y138.693 E.00157
G1 X152.649 Y138.894 E.00157
G1 X153.714 Y139.203 E.00161
G1 X154.739 Y139.613 E.0016
G1 X155.769 Y140.148 E.00169
G1 X156.727 Y140.776 E.00166
G1 X157.642 Y141.519 E.00171
G1 X158.46 Y142.336 E.00168
G1 X159.205 Y143.249 E.00171
G1 X159.847 Y144.226 E.0017
G1 X160.382 Y145.256 E.00169
G1 X160.792 Y146.281 E.0016
G1 X161.101 Y147.346 E.00161
G1 X161.401 Y149.447 E.00308
G1 X161.308 Y151.551 E.00306
G1 X161.101 Y152.655 E.00163
G1 X160.792 Y153.719 E.00161
G1 X160.382 Y154.744 E.0016
G1 X159.847 Y155.774 E.00169
G1 X159.219 Y156.732 E.00166
G1 X158.476 Y157.647 E.00171
G1 X157.659 Y158.465 E.00168
G1 X156.746 Y159.21 E.00171
G1 X155.769 Y159.852 E.0017
G1 X154.739 Y160.387 E.00169
G1 X153.714 Y160.797 E.0016
G1 X152.649 Y161.106 E.00161
G1 X150.548 Y161.406 E.00308
G1 X148.444 Y161.313 E.00306
G1 X147.34 Y161.106 E.00163
G1 X146.276 Y160.797 E.00161
G1 X145.251 Y160.387 E.0016
G1 X144.221 Y159.852 E.00169
G1 X143.263 Y159.224 E.00166
G1 X142.348 Y158.481 E.00171
G1 X141.53 Y157.664 E.00168
G1 X140.785 Y156.751 E.00171
G1 X140.143 Y155.774 E.0017
G1 X139.608 Y154.744 E.00169
G1 X139.198 Y153.719 E.0016
G1 X138.889 Y152.654 E.00161
G1 X138.589 Y150.553 E.00308
G1 X138.682 Y148.449 E.00306
G1 X138.889 Y147.345 E.00163
G1 X139.198 Y146.281 E.00161
G1 X139.608 Y145.256 E.0016
G1 X140.143 Y144.226 E.00169
G1 X140.771 Y143.268 E.00166
G1 X141.514 Y142.353 E.00171
G1 X141.99 Y141.876 E.00098
G1 X141.99 Y141.876 F7800
G1 X142.658 Y142.544
G1 F180
G1 X142.974 Y142.229 E.00065
G1 X143.812 Y141.547 E.00157
G1 X144.709 Y140.959 E.00156
G1 X145.649 Y140.471 E.00154
G1 X146.604 Y140.092 E.00149
G1 X148.553 Y139.627 E.00291
G1 X150.447 Y139.537 E.00275
G1 X152.409 Y139.809 E.00288
G1 X154.341 Y140.471 E.00297
G1 X155.281 Y140.959 E.00154
G1 X156.178 Y141.547 E.00156
G1 X157.016 Y142.229 E.00157
G1 X157.766 Y142.979 E.00154
G1 X158.448 Y143.817 E.00157
G1 X159.036 Y144.714 E.00156
G1 X159.524 Y145.654 E.00154
G1 X159.903 Y146.609 E.00149
G1 X160.368 Y148.558 E.00291
G1 X160.458 Y150.446 E.00275
G1 X160.186 Y152.414 E.00289
G1 X159.524 Y154.346 E.00297
G1 X159.036 Y155.286 E.00154
G1 X158.448 Y156.183 E.00156
G1 X157.766 Y157.021 E.00157
G1 X157.016 Y157.771 E.00154
G1 X156.178 Y158.453 E.00157
G1 X155.281 Y159.041 E.00156
G1 X154.341 Y159.529 E.00154
G1 X153.386 Y159.908 E.00149
G1 X151.437 Y160.373 E.00291
G1 X149.549 Y160.463 E.00275
G1 X147.581 Y160.191 E.00289
G1 X145.649 Y159.529 E.00297
G1 X144.709 Y159.041 E.00154
G1 X143.812 Y158.453 E.00156
G1 X142.974 Y157.771 E.00157
G1 X142.224 Y157.021 E.00154
G1 X141.542 Y156.183 E.00157
G1 X140.954 Y155.286 E.00156
G1 X140.466 Y154.346 E.00154
G1 X140.087 Y153.391 E.00149
G1 X139.622 Y151.442 E.00291
G1 X139.532 Y149.554 E.00275
G1 X139.805 Y147.586 E.00289
G1 X140.466 Y145.654 E.00297
G1 X140.954 Y144.714 E.00154
G1 X141.542 Y143.817 E.00156
G1 X142.224 Y142.979 E.00157
G1 X142.57 Y142.633 E.00071
G1 X142.57 Y142.633 F7800
G1 X143.26 Y143.312
;TYPE:External perimeter
;WIDTH:0.999999
G1 F180
G1 X143.459 Y143.111 E.00041
G1 X144.007 Y142.625 E.00106
G1 X144.59 Y142.191 E.00106
G1 X145.022 Y141.91 E.00075
G1 X145.465 Y141.653 E.00074
G1 X146.057 Y141.355 E.00096
G1 X146.939 Y141.006 E.00138
G1 X147.825 Y140.752 E.00134
G1 X148.706 Y140.588 E.0013
G1 X149.572 Y140.51 E.00126
G1 X150.424 Y140.51 E.00124
G1 X151.284 Y140.588 E.00125
G1 X152.165 Y140.752 E.0013
G1 X153.051 Y141.006 E.00134
G1 X153.934 Y141.355 E.00138
G1 X154.525 Y141.653 E.00096
G1 X154.968 Y141.91 E.00074
G1 X155.4 Y142.191 E.00075
G1 X155.983 Y142.625 E.00106
G1 X156.536 Y143.115 E.00107
G1 X157.051 Y143.639 E.00107
G1 X157.517 Y144.203 E.00106
G1 X157.815 Y144.611 E.00073
G1 X158.201 Y145.214 E.00104
G1 X158.517 Y145.808 E.00098
G1 X158.818 Y146.511 E.00111
G1 X159.118 Y147.394 E.00135
G1 X159.327 Y148.28 E.00132
G1 X159.447 Y149.155 E.00128
G1 X159.485 Y150 E.00123
G1 X159.485 Y150.423 E.00061
G1 X159.407 Y151.289 E.00126
G1 X159.243 Y152.17 E.0013
G1 X158.989 Y153.056 E.00134
G1 X158.517 Y154.192 E.00179
G1 X158.201 Y154.786 E.00098
G1 X157.815 Y155.389 E.00104
G1 X157.517 Y155.798 E.00074
G1 X157.051 Y156.361 E.00106
G1 X156.531 Y156.889 E.00108
G1 X155.983 Y157.375 E.00106
G1 X155.4 Y157.809 E.00106
G1 X154.968 Y158.09 E.00075
G1 X154.525 Y158.347 E.00074
G1 X153.934 Y158.645 E.00096
G1 X153.051 Y158.994 E.00138
G1 X152.165 Y159.248 E.00134
G1 X151.284 Y159.412 E.0013
G1 X150.418 Y159.49 E.00126
G1 X149.572 Y159.49 E.00123
G1 X148.706 Y159.412 E.00126
G1 X147.825 Y159.248 E.0013
G1 X146.939 Y158.994 E.00134
G1 X145.803 Y158.522 E.00179
G1 X145.209 Y158.206 E.00098
G1 X144.606 Y157.82 E.00104
G1 X144.198 Y157.522 E.00073
G1 X143.634 Y157.056 E.00106
G1 X143.106 Y156.536 E.00108
G1 X142.62 Y155.988 E.00106
G1 X142.186 Y155.405 E.00106
G1 X141.905 Y154.973 E.00075
G1 X141.648 Y154.53 E.00074
G1 X141.35 Y153.938 E.00096
G1 X141.001 Y153.056 E.00138
G1 X140.747 Y152.17 E.00134
G1 X140.583 Y151.289 E.0013
G1 X140.505 Y150.423 E.00126
G1 X140.505 Y149.577 E.00123
G1 X140.583 Y148.711 E.00126
G1 X140.747 Y147.83 E.0013
G1 X141.001 Y146.944 E.00134
G1 X141.473 Y145.808 E.00179
G1 X141.789 Y145.214 E.00098
G1 X142.175 Y144.611 E.00104
G1 X142.473 Y144.202 E.00074
G1 X142.939 Y143.639 E.00106
G1 X143.172 Y143.402 E.00048
G1 X143.172 Y143.402 F7800
G1 X141.851 Y154.186
;TYPE:Solid infill
;WIDTH:1.0231
G1 F180
G1 X144.228 Y156.564 E.005
G1 X144.842 Y157.062 E.00118
G1 X145.591 Y157.552 E.00133
G1 X146.365 Y157.953 E.0013
G1 X147.183 Y158.277 E.00131
G1 X147.364 Y158.329 E.00028
G1 X141.666 Y152.631 E.01199
G1 X141.485 Y151.997 E.00098
G1 X141.334 Y151.185 E.00123
G1 X141.309 Y150.902 E.00042
G1 X149.093 Y158.686 E.01638
G1 X149.606 Y158.733 E.00077
G1 X150.5 Y158.722 E.00133
G1 X141.273 Y149.495 E.01942
G1 X141.334 Y148.815 E.00102
G1 X141.433 Y148.284 E.0008
G1 X151.711 Y158.562 E.02163
G1 X151.992 Y158.51 E.00043
G1 X152.799 Y158.279 E.00125
G1 X141.716 Y147.196 E.02333
G1 X142.042 Y146.37 E.00132
G1 X142.117 Y146.226 E.00024
G1 X153.769 Y157.878 E.02452
G1 X154.399 Y157.552 E.00106
G1 X154.65 Y157.388 E.00045
G1 X142.607 Y145.345 E.02535
G1 X142.933 Y144.847 E.00089
G1 X143.178 Y144.545 E.00058
G1 X155.45 Y156.817 E.02583
G1 X155.849 Y156.493 E.00076
G1 X156.173 Y156.169 E.00068
G1 X143.818 Y143.814 E.026
G1 X144.139 Y143.509 E.00066
G1 X144.55 Y143.175 E.00079
G1 X156.82 Y155.445 E.02582
G1 X157.057 Y155.153 E.00056
G1 X157.39 Y154.644 E.00091
G1 X145.351 Y142.605 E.02534
G1 X145.591 Y142.448 E.00043
G1 X146.233 Y142.116 E.00108
G1 X157.879 Y153.762 E.02451
G1 X157.948 Y153.63 E.00022
G1 X158.278 Y152.79 E.00134
G1 X147.205 Y141.717 E.0233
G1 X147.998 Y141.49 E.00123
G1 X148.294 Y141.435 E.00045
G1 X158.56 Y151.701 E.02161
G1 X158.656 Y151.185 E.00078
G1 X158.719 Y150.489 E.00104
G1 X149.506 Y141.276 E.01939
G1 X150.389 Y141.267 E.00131
G1 X150.916 Y141.315 E.00079
G1 X158.68 Y149.079 E.01634
G1 X158.656 Y148.815 E.00039
G1 X158.505 Y148.003 E.00123
G1 X158.317 Y147.345 E.00102
G1 X152.65 Y141.678 E.01193
G1 X152.807 Y141.723 E.00024
G1 X153.625 Y142.047 E.00131
G1 X154.399 Y142.448 E.0013
G1 X155.148 Y142.938 E.00133
G1 X155.858 Y143.515 E.00136
G1 X158.146 Y145.804 E.00482
M106 S255
;LAYER_CHANGE
;Z:0.5
;HEIGHT:0.25
G1 Z0.250 F7800
G92 E0
;TYPE:External perimeter
;WIDTH:1
G1 F180
G1 Z0.252 X158.64 Y146.061 E0.000
G1 Z0.256 X158.989 Y146.944 E0.000
G1 Z0.260 X159.243 Y147.83 E0.000
G1 Z0.264 X159.407 Y148.711 E0.000
G1 Z0.267 X159.485 Y149.577 E0.000
G1 Z0.271 X159.485 Y150.423 E0.000
G1 Z0.274 X159.407 Y151.289 E0.000
G1 Z0.278 X159.243 Y152.17 E0.000
G1 Z0.282 X158.989 Y153.056 E0.000
G1 Z0.286 X158.64 Y153.939 E0.000
G1 Z0.290 X158.201 Y154.786 E0.000
G1 Z0.294 X157.669 Y155.6 E0.000
G1 Z0.296 X157.37 Y155.988 E0.000
G1 Z0.298 X157.051 Y156.361 E0.000
G1 Z0.300 X156.712 Y156.717 E0.000
G1 Z0.302 X156.356 Y157.056 E0.000
G1 Z0.304 X155.983 Y157.375 E0.000
G1 Z0.306 X155.595 Y157.674 E0.000
G1 Z0.310 X154.781 Y158.206 E0.000
G1 Z0.314 X153.934 Y158.645 E0.000
G1 Z0.318 X153.051 Y158.994 E0.000
G1 Z0.322 X152.165 Y159.248 E0.000
G1 Z0.326 X151.284 Y159.412 E0.000
G1 Z0.330 X150.418 Y159.49 E0.000
G1 Z0.333 X149.572 Y159.49 E0.000
G1 Z0.337 X148.706 Y159.412 E0.000
G1 Z0.341 X147.825 Y159.248 E0.000
G1 Z0.344 X146.939 Y158.994 E0.001
G1 Z0.348 X146.057 Y158.645 E0.001
G1 Z0.352 X145.209 Y158.206 E0.001
G1 Z0.356 X144.395 Y157.674 E0.001
G1 Z0.359 X144.007 Y157.375 E0.000
G1 Z0.361 X143.634 Y157.056 E0.000
G1 Z0.363 X143.278 Y156.717 E0.000
G1 Z0.365 X142.939 Y156.361 E0.000
G1 Z0.367 X142.62 Y155.988 E0.000
G1 Z0.369 X142.321 Y155.6 E0.000
G1 Z0.373 X141.789 Y154.786 E0.001
G1 Z0.377 X141.35 Y153.939 E0.001
G1 Z0.381 X141.001 Y153.056 E0.001
G1 Z0.385 X140.747 Y152.17 E0.001
G1 Z0.389 X140.583 Y151.289 E0.001
G1 Z0.392 X140.505 Y150.423 E0.001
G1 Z0.396 X140.505 Y149.577 E0.001
G1 Z0.399 X140.583 Y148.711 E0.001
G1 Z0.403 X140.747 Y147.83 E0.001
G1 Z0.407 X141.001 Y146.944 E0.001
G1 Z0.411 X141.35 Y146.061 E0.001
G1 Z0.415 X141.789 Y145.214 E0.001
G1 Z0.419 X142.321 Y144.4 E0.001
G1 Z0.421 X142.62 Y144.012 E0.000
G1 Z0.423 X142.939 Y143.639 E0.000
G1 Z0.425 X143.278 Y143.283 E0.000
G1 Z0.427 X143.634 Y142.944 E0.001
G1 Z0.429 X144.007 Y142.625 E0.001
G1 Z0.431 X144.395 Y142.326 E0.001
G1 Z0.435 X145.209 Y141.794 E0.001
G1 Z0.439 X146.057 Y141.355 E0.001
G1 Z0.443 X146.939 Y141.006 E0.001
G1 Z0.447 X147.825 Y140.752 E0.001
G1 Z0.451 X148.706 Y140.588 E0.001
G1 Z0.455 X149.572 Y140.51 E0.001
G1 Z0.458 X150.435 Y140.511 E0.001
G1 Z0.462 X151.284 Y140.588 E0.001
G1 Z0.466 X152.165 Y140.752 E0.001
G1 Z0.469 X153.051 Y141.006 E0.001
G1 Z0.473 X153.934 Y141.355 E0.001
G1 Z0.477 X154.781 Y141.794 E0.001
G1 Z0.481 X155.595 Y142.326 E0.001
G1 Z0.484 X155.983 Y142.625 E0.001
G1 Z0.486 X156.356 Y142.944 E0.001
G1 Z0.488 X156.712 Y143.283 E0.001
G1 Z0.490 X157.051 Y143.639 E0.001
G1 Z0.492 X157.37 Y144.012 E0.001
G1 Z0.494 X157.669 Y144.4 E0.001
G1 Z0.498 X158.201 Y145.214 E0.001
G1 Z0.500 X158.43 Y145.657 E0.001
;LAYER_CHANGE
;Z:0.75
;HEIGHT:0.25
G1 Z0.500 F7800
G92 E0
G1 F180
G1 Z0.502 X158.64 Y146.062 E.00066
G1 Z0.506 X158.989 Y146.944 E.00138
G1 Z0.510 X159.243 Y147.83 E.00134
G1 Z0.514 X159.407 Y148.711 E.0013
G1 Z0.517 X159.485 Y149.577 E.00126
G1 Z0.521 X159.485 Y150.423 E.00123
G1 Z0.524 X159.407 Y151.289 E.00126
G1 Z0.528 X159.243 Y152.17 E.0013
G1 Z0.532 X158.989 Y153.056 E.00134
G1 Z0.536 X158.64 Y153.939 E.00138
G1 Z0.540 X158.201 Y154.786 E.00139
G1 Z0.544 X157.669 Y155.6 E.00141
G1 Z0.546 X157.37 Y155.988 E.00071
G1 Z0.548 X157.051 Y156.361 E.00071
G1 Z0.550 X156.712 Y156.717 E.00071
G1 Z0.552 X156.356 Y157.056 E.00071
G1 Z0.554 X155.983 Y157.375 E.00071
G1 Z0.556 X155.595 Y157.674 E.00071
G1 Z0.560 X154.781 Y158.206 E.00141
G1 Z0.564 X153.934 Y158.645 E.00139
G1 Z0.568 X153.051 Y158.994 E.00138
G1 Z0.572 X152.165 Y159.248 E.00134
G1 Z0.576 X151.284 Y159.412 E.0013
G1 Z0.580 X150.418 Y159.49 E.00126
G1 Z0.583 X149.572 Y159.49 E.00123
G1 Z0.587 X148.706 Y159.412 E.00126
G1 Z0.591 X147.825 Y159.248 E.0013
G1 Z0.594 X146.939 Y158.994 E.00134
G1 Z0.598 X146.057 Y158.645 E.00138
G1 Z0.602 X145.209 Y158.206 E.00139
G1 Z0.606 X144.395 Y157.674 E.00141
G1 Z0.609 X144.007 Y157.375 E.00071
G1 Z0.611 X143.634 Y157.056 E.00071
G1 Z0.613 X143.278 Y156.717 E.00071
G1 Z0.615 X142.939 Y156.361 E.00071
G1 Z0.617 X142.62 Y155.988 E.00071
G1 Z0.619 X142.321 Y155.6 E.00071
G1 Z0.623 X141.789 Y154.786 E.00141
G1 Z0.627 X141.35 Y153.939 E.00139
G1 Z0.631 X141.001 Y153.056 E.00138
G1 Z0.635 X140.747 Y152.17 E.00134
G1 Z0.639 X140.583 Y151.289 E.0013
G1 Z0.642 X140.505 Y150.423 E.00126
G1 Z0.646 X140.505 Y149.577 E.00123
G1 Z0.649 X140.583 Y148.711 E.00126
G1 Z0.653 X140.747 Y147.83 E.0013
G1 Z0.657 X141.001 Y146.944 E.00134
G1 Z0.661 X141.35 Y146.061 E.00138
G1 Z0.665 X141.789 Y145.214 E.00139
G1 Z0.669 X142.321 Y144.4 E.00141
G1 Z0.671 X142.62 Y144.012 E.00071
G1 Z0.673 X142.939 Y143.639 E.00071
G1 Z0.675 X143.278 Y143.283 E.00071
G1 Z0.677 X143.634 Y142.944 E.00071
G1 Z0.679 X144.007 Y142.625 E.00071
G1 Z0.681 X144.395 Y142.326 E.00071
G1 Z0.685 X145.209 Y141.794 E.00141
G1 Z0.689 X146.057 Y141.355 E.00139
G1 Z0.693 X146.939 Y141.006 E.00138
G1 Z0.697 X147.825 Y140.752 E.00134
G1 Z0.701 X148.706 Y140.588 E.0013
G1 Z0.705 X149.571 Y140.51 E.00126
G1 Z0.708 X150.446 Y140.512 E.00127
G1 Z0.712 X151.284 Y140.588 E.00122
G1 Z0.716 X152.165 Y140.752 E.0013
G1 Z0.719 X153.051 Y141.006 E.00134
G1 Z0.723 X153.934 Y141.355 E.00138
G1 Z0.727 X154.781 Y141.794 E.00139
G1 Z0.731 X155.595 Y142.326 E.00141
G1 Z0.734 X155.983 Y142.625 E.00071
G1 Z0.736 X156.356 Y142.944 E.00071
G1 Z0.738 X156.712 Y143.283 E.00071
G1 Z0.740 X157.051 Y143.639 E.00071
G1 Z0.742 X157.37 Y144.012 E.00071
G1 Z0.744 X157.669 Y144.4 E.00071
G1 Z0.748 X158.201 Y145.214 E.00141
G1 Z0.750 X158.43 Y145.657 E.00072
;LAYER_CHANGE
;Z:1
;HEIGHT:0.25
G1 Z0.750 F7800
G92 E0
G1 F180
G1 Z0.752 X158.64 Y146.061 E.00066
G1 Z0.756 X158.989 Y146.944 E.00138
G1 Z0.760 X159.243 Y147.83 E.00134
G1 Z0.764 X159.407 Y148.711 E.0013
G1 Z0.767 X159.485 Y149.577 E.00126
G1 Z0.771 X159.485 Y150.423 E.00123
G1 Z0.774 X159.407 Y151.289 E.00126
G1 Z0.778 X159.243 Y152.17 E.0013
G1 Z0.782 X158.989 Y153.056 E.00134
G1 Z0.786 X158.64 Y153.939 E.00138
G1 Z0.790 X158.201 Y154.786 E.00139
G1 Z0.794 X157.669 Y155.6 E.00141
G1 Z0.796 X157.37 Y155.988 E.00071
G1 Z0.798 X157.051 Y156.361 E.00071
G1 Z0.800 X156.712 Y156.717 E.00071
G1 Z0.802 X156.356 Y157.056 E.00071
G1 Z0.804 X155.983 Y157.375 E.00071
G1 Z0.806 X155.595 Y157.674 E.00071
G1 Z0.810 X154.781 Y158.206 E.00141
G1 Z0.814 X153.934 Y158.645 E.00139
G1 Z0.818 X153.051 Y158.994 E.00138
G1 Z0.822 X152.165 Y159.248 E.00134
G1 Z0.826 X151.284 Y159.412 E.0013
G1 Z0.830 X150.418 Y159.49 E.00126
G1 Z0.833 X149.572 Y159.49 E.00123
G1 Z0.837 X148.706 Y159.412 E.00126
G1 Z0.841 X147.825 Y159.248 E.0013
G1 Z0.844 X146.939 Y158.994 E.00134
G1 Z0.848 X146.057 Y158.645 E.00138
G1 Z0.852 X145.209 Y158.206 E.00139
G1 Z0.856 X144.395 Y157.674 E.00141
G1 Z0.859 X144.007 Y157.375 E.00071
G1 Z0.861 X143.634 Y157.056 E.00071
G1 Z0.863 X143.278 Y156.717 E.00071
G1 Z0.865 X142.939 Y156.361 E.00071
G1 Z0.867 X142.62 Y155.988 E.00071
G1 Z0.869 X142.321 Y155.6 E.00071
G1 Z0.873 X141.789 Y154.786 E.00141
G1 Z0.877 X141.35 Y153.939 E.00139
G1 Z0.881 X141.001 Y153.056 E.00138
G1 Z0.885 X140.747 Y152.17 E.00134
G1 Z0.889 X140.583 Y151.289 E.0013
G1 Z0.892 X140.505 Y150.423 E.00126
G1 Z0.896 X140.505 Y149.577 E.00123
G1 Z0.899 X140.583 Y148.711 E.00126
G1 Z0.903 X140.747 Y147.83 E.0013
